resources/svg/regular/calendar-exclamation.svg

<svg xmlns="http://www.w3.org/2000/svg" fill="currentColor" stroke="none" viewBox="0 0 24 24"><path d="M19 4h-2V2h-2v2H9V2H7v2H5c-1.103 0-2 .897-2 2v14c0 1.103.897 2 2 2h14c1.103 0 2-.897 2-2V6c0-1.103-.897-2-2-2zm.002 16H5V8h14l.002 12z"/><path d="M11 10h2v5h-2zm0 6h2v2h-2z"/></svg>

<svg xmlns="http://www.w3.org/2000/svg" fill="currentColor" stroke="none" viewBox="0 0 24 24"><path d="M19,4h-2V2h-2v2H9V2H7v2H5C3.897,4,3,4.897,3,6v2v12c0,1.103,0.897,2,2,2h14c1.103,0,2-0.897,2-2V8V6 C21,4.897,20.103,4,19,4z M19.002,20H5V8h14L19.002,20z"/><path d="M11 10H13V15H11zM11 16H13V18H11z"/></svg>
